X: 40161
T: Tim Maloney's
R: reel
M: 4/4
K: Gmajor
DG ~G2 BddB|dedB gedB|G2 BG dGBG|c2 Bc AGEG|
DG ~G2 BddB|dedB dgfg|e3 d (3Bcd ef|gedB AGEG:|
d ~g3 bgge|dBBA Bdef|g2 bg abge|d2 BG AGEG|
d ~g3 bgge|dBBA Bdgf|e3d (3Bcd ef|gedB AGEG:|

